!!!!SEGMENT: pl-kk--kk-i-382--035_rothe--adoro-te.krn
!!!cenid: 18xx:1522
!!!COM: Rothe
!!!COM-rismid: pe30020683
!!!CDT:
!!!CNT:
!!!OTL: Adoro te
!!!PDT:
!!!AGN: Sacred
!!!SMS-siglum: PL-Kk
!!!SMS-shelfmark: Kk.I.382
!!!SMS-shelfwork: 020 W
!!!SMS-variant:
!!!SMS-altvar:
!!!NIFC-rismid: 1001139661
!!!URL-scan: http://repozytorium.nifc.pl/skany/pl-kk-nut--i-382
!!!ONB-nifc: UWAGA: obsada: S (T 1), A (B 1), T 2, B 2; S (T 1): skan 0032; A (B 1): skan 0213; T 2: skan 0105; B 2: skan 0253. Jesu salvator to osobny utwór
**kern	**text	**text	**kern	**text	**text	**kern	**text	**text	**kern	**text	**text
*part4	*part4	*part4	*part3	*part3	*part3	*part2	*part2	*part2	*part1	*part1	*part1
*staff4	*staff4	*staff4	*staff3	*staff3	*staff3	*staff2	*staff2	*staff2	*staff1	*staff1	*staff1
*I"Basso II	*	*	*I"Tenore II	*	*	*I"Alto vel Basso I	*	*	*I"Soprano vel Tenore I.	*	*
*I'B 2	*	*	*I'T 2	*	*	*I'A (B 1)	*	*	*I'S (T 1)	*	*
*clefF4	*	*	*clefG2	*	*	*clefF4	*	*	*clefG2	*	*
*	*	*	*ITrd7c12	*	*	*	*	*	*	*	*
*k[f#c#g#]	*	*	*k[f#c#g#]	*	*	*k[f#c#g#]	*	*	*k[f#c#g#]	*	*
*A:	*	*	*A:	*	*	*A:	*	*	*A:	*	*
*M4/4	*	*	*M4/4	*	*	*M4/4	*	*	*M4/4	*	*
*met(c)	*	*	*met(c)	*	*	*met(c)	*	*	*met(c)	*	*
*2\right	*	*	*2\right	*	*	*2\right	*	*	*2\right	*	*
!LO:TX:a:i:t=Adoro te, /&colon;St Thomas v. Aquino +1274&colon;/     p&colon; B&colon; Rothe	!	!	!LO:TX:a:i:t=Adoro te /&colon;St Thomas v&colon; Aquino +1274&colon;/     p B Rothe	!	!	!LO:TX:a:i:t=Adoro te /&colon;St Thomas v&colon; Aquino +1274&colon;/     p B&colon; Rothe	!	!	!	!	!
!	!	!	!	!	!	!LO:TX:a:t=P:problem:w źródle klucz bez przenośnika oktawowego	!	!	!LO:TX:a:i:t=Adoro te / St Thomas v. Aquino +1274&colon;/     p B&colon; Rothe	!	!
2E\	A,-	.	2B\	A,-	.	2G#\	A,-	.	2ee\	A,-	.
=1!|:	=1!|:	=1!|:	=1!|:	=1!|:	=1!|:	=1!|:	=1!|:	=1!|:	=1!|:	=1!|:	=1!|:
2E\	-do-	Ti,-	2B\	-do-	Ti,-	2G#\	-do-	Ti,-	2ee\	-do-	Ti,-
!LO:TX:t=P:problem:2/left:global	!	!	!	!	!	!LO:TX:t=P:problem:all\right:global	!	!	!	!	!
2BB/	-ro	-bi,	2B\	-ro	-bi,	(>4F#\	-ro	-bi,	2dd\	-ro	-bi,
.	.	.	.	.	.	4G#\)	.	.	.	.	.
=2	=2	=2	=2	=2	=2	=2	=2	=2	=2	=2	=2
2AA/	te	se	2c#\	te	se	2A\	te	se	2cc#\	te	se
!	!	!	!LO:TX:t=P:problem:2/left:global	!	!	!	!	!	!	!	!
2F#\	de-	cor,	2A/	de-	cor,	2F#\	de-	cor,	2cc#\	de-	cor,
=3	=3	=3	=3	=3	=3	=3	=3	=3	=3	=3	=3
2D\	-vo-	me-	2A/	-vo-	me-	2F#\	-vo-	me-	2dd\	-vo-	me-
2AA;>/	-te	-um	2A/	-te	-um	2E;>\	-te	-um	2cc#;>\	-te	-um
=4	=4	=4	=4	=4	=4	=4	=4	=4	=4	=4	=4
2E\	la-	to-	2G#/	la-	to-	2E\	la-	to-	2b\	la-	to-
2C#/	-tens	-tum,	2G#/	-tens	-tum	2E\	-tens	-tum	2ee\	-tens	-tum
!	!	!	!LO:LB:g=original	!	!	!LO:LB:g=original	!	!	!	!	!
=5	=5	=5	=5	=5	=5	=5	=5	=5	=5	=5	=5
2AA/	De-	sub-	2c#\	De-	sub-	2A\	De-	sub-	2ee\	De-	sub-
2BB/	-i,-	-ji,-	2B\	-i,-	-ji,-	2F#\	-i,-	-ji,-	2dd#X\	-i,-	-ji,-
=6	=6	=6	=6	=6	=6	=6	=6	=6	=6	=6	=6
1E;>	-tas	-cit,	1B;>	-tas	-cit	1G#;<	-tas	-cit	1ee;>	-tas	-cit
=7	=7	=7	=7	=7	=7	=7	=7	=7	=7	=7	=7
2AA/	que	qui,-	2c#\	que	qui,-	2A\	que	qui,-	2ee\	que	qui-
(>4A\	sub	-a	2A/	sub	-a	2A\	sub	-a	2cc#\	sub	-a
4G#\)	.	.	.	.	.	.	.	.	.	.	.
!LO:LB:g=original	!	!	!	!	!	!	!	!	!LO:LB:g=original	!	!
=8	=8	=8	=8	=8	=8	=8	=8	=8	=8	=8	=8
2F#\	his	te	2A/	his	te	2A\	his	te	2dd\	his	te
2E\	fi,-	con,-	2c#\	fi,-	con,-	2A\	fi,-	con,-	2ee\	fi,-	con,-
=9	=9	=9	=9	=9	=9	=9	=9	=9	=9	=9	=9
2D\	-gu-	-tem-	2d\	-gu,-	-tem-	2A\	-gu,-	-tem-	2ff#\	-gu,-	-tem-
2AA/	-ris	-plans	2c#\	-ris	-plans	2A\	-ris	-plans	2ee\	-ris	-plans
=10	=10	=10	=10	=10	=10	=10	=10	=10	=10	=10	=10
2BB/	ve-	to-	2B\	ve-	to-	2F#\	ve-	to-	2dd\	ve-	to-
2C#/	-re	-tum,	2A/	-re	-tum	2E\	-re	-tum	2cc#\	-re	-tum
!	!	!	!LO:LB:g=original	!	!	!LO:LB:g=original	!	!	!	!	!
=11	=11	=11	=11	=11	=11	=11	=11	=11	=11	=11	=11
2D\	la-	de-	2A/	la-	de-	2F#\	la-	de-	2b\	la-	de-
2E\	-ti,-	-fi,-	2G#/	-ti,-	-fi,-	(>4E\	-ti,-	-fi,-	2b\	-ti,-	-fi,-
.	.	.	.	.	.	4D\)	.	.	.	.	.
=12	=12	=12	=12	=12	=12	=12	=12	=12	=12	=12	=12
1AA;>	-tas	-cit,	1A;>	-tas	-cit	1C#;>	-tas	-cit	1a;>	-tas	-cit
=13:|!	=13:|!	=13:|!	=13:|!	=13:|!	=13:|!	=13:|!	=13:|!	=13:|!	=13:|!	=13:|!	=13:|!
2AA/	A,-	.	2e\	A,-	.	2c#\	A,-	.	2aa\	A,-	.
2C#/	-ve	.	2e\	-ve	.	2c#\	-ve	.	2gg#\	-ve	.
=14	=14	=14	=14	=14	=14	=14	=14	=14	=14	=14	=14
2D\	Je-	.	2d\	Je-	.	2A\	Je-	.	2ff#\	Je-	.
2A;<\	-su,	.	2c#;>\	-su	.	2A;<\	-su	.	2ee;>\	-su	.
=15	=15	=15	=15	=15	=15	=15	=15	=15	=15	=15	=15
2F#\	ve-	.	2f#\	ve-	.	2c#\	ve-	.	2aa\	ve-	.
2C#/	-rum	.	2e\	-rum	.	2c#\	-rum	.	2gg#\	-rum	.
!LO:LB:g=original	!	!	!	!	!	!LO:LB:g=original	!	!	!LO:LB:g=original	!	!
=16	=16	=16	=16	=16	=16	=16	=16	=16	=16	=16	=16
2D\	man-	.	2d\	man-	.	2A\	man-	.	2ff#\	man-	.
2A;>\	-hu	.	2c#;>\	-hu	.	2A;<\	-hu	.	2ee;>\	-hu	.
!	!	!	!LO:PB:g=original	!	!	!	!	!	!	!	!
=17	=17	=17	=17	=17	=17	=17	=17	=17	=17	=17	=17
2AA/	Chri-	.	2A/	Chri,-	.	2E\	Chris-	.	2cc#\	Chris-	.
2D\	-ste	.	2A/	-ste	.	2F#\	-te	.	2dd\	-te	.
=18	=18	=18	=18	=18	=18	=18	=18	=18	=18	=18	=18
2E\	Je-	.	2G#/	Je-	.	2E\	Je-	.	2b\	Je-	.
2AA;>/	-su	.	2A/	-su	.	2E;>\	-su	.	2cc#;>\	-su	.
=19	=19	=19	=19	=19	=19	=19	=19	=19	=19	=19	=19
2r	.	.	2r	.	.	2r	.	.	2r	.	.
2GG#/	ad	.	2B\	ad	.	2E\	ad	.	2ee\	ad	.
=20	=20	=20	=20	=20	=20	=20	=20	=20	=20	=20	=20
*	*	*	*	*	*	*^	*	*	*	*	*
2AA/	au,-	.	2c#\	au-	.	2E\	2ryy	au,-	.	2ee\	au,-	.
!	!	!	!	!	!	!LO:TX:a:t=P:problem:kauda z lewej strony	!	!	!	!	!	!
(<4A\	-ge	.	2A/	-ge	.	2A/	(<4A\	-ge	.	2cc#\	-ge	.
4G#\)	.	.	.	.	.	.	4G#\)	.	.	.	.	.
*	*	*	*	*	*	*v	*v	*	*	*	*	*
=21	=21	=21	=21	=21	=21	=21	=21	=21	=21	=21	=21
2F#\	fi,-	.	2A/	fi,-	.	2A\	fi,-	.	2dd\	fi,-	.
2E\	-dem,	.	2c#\	-dem	.	2A\	-dem	.	2ee\	-dem	.
!	!	!	!	!	!	!LO:LB:g=original	!	!	!	!	!
=22	=22	=22	=22	=22	=22	=22	=22	=22	=22	=22	=22
2D\	om-	.	2d\	om,-	.	2A\	om,-	.	2ff#\	om,-	.
2AA/	-ni,-	.	2c#\	-ni,-	.	2A\	-ni,-	.	2ee\	-ni,-	.
!LO:LB:g=original	!	!	!LO:LB:g=original	!	!	!	!	!	!LO:LB:g=original	!	!
=23	=23	=23	=23	=23	=23	=23	=23	=23	=23-	=23	=23
2BB/	-um	.	2B\	-um,	.	2F#\	-um,	.	2dd\	-um	.
2C#/	cre-	.	2A/	cre-	.	2E\	cre-	.	2cc#\	cre-	.
=24	=24	=24	=24	=24	=24	=24	=24	=24	=24	=24	=24
2D\	-den,-	.	2A/	-den,-	.	2F#\	-den,-	.	2b\	-den,-	.
2E\	-ti,-	.	2G#/	-ti,-	.	(>4E\	-ti-	.	2b\	-ti,-	.
.	.	.	.	.	.	4D\)	.	.	.	.	.
=25	=25	=25	=25	=25	=25	=25	=25	=25	=25	=25	=25
1AA;>	-um-	.	1A;>	-um	.	1C#;>	-um	.	1a;>	-um	.
==	==	==	==	==	==	==	==	==	==	==	==
*-	*-	*-	*-	*-	*-	*-	*-	*-	*-	*-	*-
!!!system-decoration: [(s1,s2,s3,s4)]
!!!RDF**kern: > = above
!!!RDF**kern: < = below
!!!EED:Mateusz Mrugas
!!!EST:2021-02-09
!!!ENC: Berenika Jozajtis
!!!END:2021-01-29
